X: 1
T: The Blackbird
R: hornpipe
M: 4/4
L: 1/8
K: Dmaj
|:AG|FEFA GFD2|defd dcAF|G2GF GFDE|FGAF GBAG|
F2FA GFD2|defd dcAG|Ad (3cBA GBAG|F2D2 D2:|
|:fg|agfa gfeg|fdec dcA2|agfa gfde|(3fed gf e2fg|
(3agf ge f2fe|d2de fdec|dcAF GBAG|F2D2 D2:|


Tune 4101	Setting 28821

